!!!COM: Palestrina, Giovanni Perluigi da
!!!OPR: De Beata Marie Virginis (I)
!!!OTL: Gloria
**kern	**kern	**kern	**kern	**kern
*Ibass	*Itenor	*Itenor	*Icalto	*Icant
!Bassus	!Tenor 2	!Tenor 1	!Altus	!Cantus
*clefF4	*clefGv2	*clefGv2	*clefG2	*clefG2
*k[]	*k[]	*k[]	*k[]	*k[]
*G:mix	*G:mix	*G:mix	*G:mix	*G:mix
*M4/2	*M4/2	*M4/2	*M4/2	*M4/2
=1	=1	=1	=1	=1
0r	1c	0r	0r	0r
.	1A	.	.	.
=2	=2	=2	=2	=2
0r	1G	0r	1g	0r
.	2A	.	1e	.
.	[2c	.	.	.
=3	=3	=3	=3	=3
0r	4c]	0r	1d	1r
.	8B	.	.	.
.	8A	.	.	.
.	2B	.	.	.
.	4c	.	2e	1cc
.	4d	.	.	.
.	4e	.	[2g	.
.	4c	.	.	.
=4	=4	=4	=4	=4
1r	2d	0r	4g]	1a
.	.	.	8f#	.
.	.	.	8e	.
.	2d	.	2f#	.
1c	2e	.	4g	1g
.	.	.	4f	.
.	[2g	.	4e	.
.	.	.	4d	.
=5	=5	=5	=5	=5
1A	2g]	0r	1c	2a
.	2f#	.	.	2.cc
1G	2.g	.	1d	.
.	.	.	.	8b
.	.	.	.	8a
.	.	.	.	2b
.	4f	.	.	.
=6	=6	=6	=6	=6
1A	4e	1c	2r	1cc
.	4d	.	.	.
.	1e	.	1a	.
1F	.	1A	.	1r
.	[2d	.	2f	.
=7	=7	=7	=7	=7
1E	2d]	1G	2g	1ee
.	2c#	.	2e	.
[1D	[1d	1A	4f#	2a
.	.	.	4g	.
.	.	.	[2a	[2dd
=8	=8	=8	=8	=8
0D]	0d]	1B	2a]	2dd]
.	.	.	2.g	2dd
.	.	1A	.	1dd
.	.	.	8f#	.
.	.	.	8e	.
.	.	.	2f#	.
=9	=9	=9	=9	=9
[0G	[0d	[0G	[0g	[0b
=10	=10	=10	=10	=10
0G]	0d]	0G]	0g]	0b]
!! Benedicimus te
*Ibass	*Itenor	*Itenor	*Icalto	*Icant
!Bassus	!Tenor 2	!Tenor 1	!Altus	!Cantus
*clefF4	*clefGv2	*clefGv2	*clefG2	*clefG2
*k[]	*k[]	*k[]	*k[]	*k[]
*G:mix	*G:mix	*G:mix	*G:mix	*G:mix
*M4/2	*M4/2	*M4/2	*M4/2	*M4/2
=11	=11	=11	=11	=11
1.G	0r	1.B	1g	1r
.	.	.	1g	1dd
2G	.	2B	.	.
=12	=12	=12	=12	=12
4D	0r	2.A	1f	1dd
4E	.	.	.	.
4F	.	.	.	.
4G	.	4B	.	.
4A	.	4c	1e	1cc
4B	.	4d	.	.
2c	.	4e	.	.
.	.	4f#	.	.
=13	=13	=13	=13	=13
2G	1d	1g	1d	1b
2G	.	.	.	.
1D	1d	2a	1f	1a
.	.	[2f	.	.
=14	=14	=14	=14	=14
1r	1c	4f]	0g	1cc
.	.	4e	.	.
.	.	2e	.	.
1G	1B	2d	.	2dd
.	.	[2d	.	2gg
=15	=15	=15	=15	=15
2D	1A	2d]	2.a	2ff
1F	.	2c	.	1ff
.	.	.	4a	.
.	1c	2A	2a	.
2C	.	2c	2g	2ee
=16	=16	=16	=16	=16
0G	[0d	2.B	0g	2.dd
.	.	4A	.	4cc
.	.	1G	.	1b
=17	=17	=17	=17	=17
[0D	1d_	[0A	[0f#	[0a
.	1d_	.	.	.
=18	=18	=18	=18	=18
0D]	0d]	0A]	0f#]	0a]
!! Glorificamus te
*Ibass	*Itenor	*Itenor	*Icalto	*Icant
!Bassus	!Tenor 2	!Tenor 1	!Altus	!Cantus
*clefF4	*clefGv2	*clefGv2	*clefG2	*clefG2
*k[]	*k[]	*k[]	*k[]	*k[]
*G:mix	*G:mix	*G:mix	*G:mix	*G:mix
*M4/2	*M4/2	*M4/2	*M4/2	*M4/2
=19	=19	=19	=19	=19
0r	0r	0r	0r	1dd
.	.	.	.	[1ee
=20	=20	=20	=20	=20
0r	0r	0r	1g	2ee]
.	.	.	.	2dd
.	.	.	[1a	2cc
.	.	.	.	4b
.	.	.	.	4a
=21	=21	=21	=21	=21
0r	0r	0r	2a]	2cc
.	.	.	2g	1dd
.	.	.	2f	.
.	.	.	4e	4cc
.	.	.	4d	4b
=22	=22	=22	=22	=22
0r	0r	1r	2f#	2a
.	.	.	1g	2b
.	.	1d	.	1a
.	.	.	2f#	.
=23	=23	=23	=23	=23
1r	0r	1.e	2g	0g
.	.	.	2c	.
1G	.	.	2c	.
.	.	[2d	2B	.
=24	=24	=24	=24	=24
1.A	0r	4d]	1e	1r
.	.	4c	.	.
.	.	4B	.	.
.	.	4A	.	.
.	.	2c	1e	2r
2G	.	2B	.	2g
=25	=25	=25	=25	=25
2F	1r	2A	1d	1.a
4E	.	4G	.	.
4D	.	4F	.	.
2F	1d	2A	1r	.
2G	.	2B	.	[2g
=26	=26	=26	=26	=26
4C	1.e	1c	0g	2g]
4D	.	.	.	.
4E	.	.	.	2.cc
4F	.	.	.	.
1G	.	2r	.	.
.	.	.	.	4b
.	2d	[2G	.	4b
.	.	.	.	8cc
.	.	.	.	8dd
=27	=27	=27	=27	=27
1C	1c	2G]	1.e	1.ee
.	.	1g	.	.
2E	2B	.	.	.
2F	2A	2f	2a	4cc
.	.	.	.	4dd
=28	=28	=28	=28	=28
1.C	0c	2.e	2g	4ee
.	.	.	.	4ff
.	.	.	4c	2gg
.	.	4d	4d	.
.	.	2c	4e	1g
.	.	.	4f	.
2E	.	2G	[2g	.
=29	=29	=29	=29	=29
0D	[0d	0A	2g]	2.dd
.	.	.	4f#	.
.	.	.	4e	8cc
.	.	.	.	8b
.	.	.	1f#	4a
.	.	.	.	4g
.	.	.	.	2a
=30	=30	=30	=30	=30
[0G	1d_	[0G	[0g	[0b
.	1d_	.	.	.
=31	=31	=31	=31	=31
0G]	0d]	0G]	0g]	0b]
*	*	*	*	*-
!! Domine Deus Rex
*Itenor	*Itenor	*Icalto	*Icant
!Tenor 2	!Tenor 1	!Altus	!Cantus
*clefGv2	*clefGv2	*clefG2	*clefG2
*k[]	*k[]	*k[]	*k[]
*G:mix	*G:mix	*G:mix	*G:mix
*M4/2	*M4/2	*M4/2	*M4/2
=32	=32	=32	=32
0r	0r	1.g	0r
.	.	2f	.
=33	=33	=33	=33
0r	0r	4e	1r
.	.	4f	.
.	.	4g	.
.	.	4e	.
.	.	2f	[1dd
.	.	2g	.
=34	=34	=34	=34
1r	0r	1a	2dd]
.	.	.	2cc
2r	.	1g	1b
[2g	.	.	.
=35	=35	=35	=35
2g]	0r	2r	1a
2f	.	1cc	.
4e	.	.	1g
4f	.	.	.
4g	.	2b	.
4e	.	.	.
=36	=36	=36	=36
2f	2r	2a	1cc
2e	1g	2g	.
1d	.	1a	1dd
.	2f	.	.
=37	=37	=37	=37
1c	4e	2.cc	0r
.	4f	.	.
.	4g	.	.
.	4e	4b	.
[1d	2f	2a	.
.	2g	[2g	.
=38	=38	=38	=38
1d]	1a	2g]	1r
.	.	2f#	.
4G	2g	1g	1dd
4A	.	.	.
4B	2G	.	.
4c	.	.	.
=39	=39	=39	=39
2d	2B	1g	1.gg
1e	2c	.	.
.	1A	[1cc	.
2c	.	.	2ff
=40	=40	=40	=40
1g	1G	2cc]	2ee
.	.	2b	2dd
1c	1r	2a	2cc
.	.	2g	2ee
=41	=41	=41	=41
0r	1d	2.f	2ff
.	.	.	2.dd
.	.	8e	.
.	.	8d	.
.	[1g	1e	.
.	.	.	8cc#
.	.	.	8b
.	.	.	2cc#
=42	=42	=42	=42
1d	2g]	1a	2dd
.	2f	.	2a
[1g	1e	2r	2b
.	.	2g	2cc
=43	=43	=43	=43
2g]	1d	2b	2.dd
2f	.	2.a	.
.	.	.	8cc
.	.	.	8b
2e	2c#	.	[1a
.	.	4g	.
[2d	2d	[2g	.
=44	=44	=44	=44
2d]	1A	2g]	1a]
2c#	.	2f#	.
[1d	[1G	1g	1b
=45	=45	=45	=45
1d]	1G]	2r	1g
.	.	2g	.
2r	1r	2d	1a
2d	.	2f	.
=46	=46	=46	=46
2A	2r	4c	1cc
.	.	4d	.
2c	1g	4e	.
.	.	4f#	.
4G	.	1g	1b
4A	.	.	.
4B	2d	.	.
4c	.	.	.
=47	=47	=47	=47
2d	2f	0r	1a
4A	4c	.	.
4B	4d	.	.
4c	4e	.	1g
4d	4f#	.	.
2e	2g	.	.
=48	=48	=48	=48
2f	2a	2r	1cc
2e	1g	2g	.
1d	.	2a	1dd
.	2f#	2b	.
=49	=49	=49	=49
4c	1g	1cc	1ee
4d	.	.	.
4e	.	.	.
4f	.	.	.
2g	2r	2b	1dd
[2f	2d	[2a	.
=50	=50	=50	=50
2f]	2A	2a]	1cc
2e	2c	2.g	.
[1d	4G	.	1b
.	4A	4f	.
.	4B	4d	.
.	4c	4e	.
=51	=51	=51	=51
1d]	2d	4f	1a
.	.	4g	.
.	2f	2a	.
1r	2g	4e	[1b
.	.	4f#	.
.	2e	4g	.
.	.	4e	.
=52	=52	=52	=52
1r	1d	2f#	2b]
.	.	1g	4a
.	.	.	4g
1d	2r	.	2a
.	[2d	2f#	2a
=53	=53	=53	=53
2B	2d]	1g	[0g
2.c	1e	.	.
.	.	1e	.
4d	.	.	.
[2e	[2c	.	.
=54	=54	=54	=54
2e]	2c]	2c	1g_
2.d	2B	2d	.
.	2.c	[1e	1g_
4c	.	.	.
[2c	.	.	.
.	8B	.	.
.	8A	.	.
=55	=55	=55	=55
2c]	[0G	2e]	0g]
4B	.	4d	.
4A	.	4c	.
1B	.	1d	.
=56	=56	=56	=56
[0B	1G_	[0d	[0g
.	1G_	.	.
=57	=57	=57	=57
0B]	0G]	0d]	0g]
*-	*-	*-	*-
!! Domine Deus Agnus
**kern	**kern	**kern	**kern	**kern
*Ibass	*Itenor	*Itenor	*Icalto	*Icant
!Bassus	!Tenor 2	!Tenor 1	!Altus	!Cantus
*clefF4	*clefGv2	*clefGv2	*clefG2	*clefG2
*k[]	*k[]	*k[]	*k[]	*k[]
*G:mix	*G:mix	*G:mix	*G:mix	*G:mix
*M4/2	*M4/2	*M4/2	*M4/2	*M4/2
=58	=58	=58	=58	=58
0r	1r	1d	0r	0r
.	1G	[1g	.	.
=59	=59	=59	=59	=59
0r	1.c	2g]	1r	0r
.	.	2f	.	.
.	.	2e	1G	.
.	2B	2d	.	.
=60	=60	=60	=60	=60
0r	1c	1e	1.g	1g
.	1A	1c	.	[1cc
.	.	.	2f#	.
=61	=61	=61	=61	=61
0r	1G	2d	1g	2cc]
.	.	2d	.	2b
.	1r	2f	1a	1cc
.	.	2a	.	.
=62	=62	=62	=62	=62
1G	0r	0g	1b	1dd
[1c	.	.	2cc	1ee
.	.	.	[2g	.
=63	=63	=63	=63	=63
2c]	0r	1G	4g]	2dd
.	.	.	4a	.
2B	.	.	4b	2dd
.	.	.	4g	.
1c	.	1r	4a	2cc
.	.	.	4g	.
.	.	.	[2g	2b
=64	=64	=64	=64	=64
1d	1r	0r	2g]	2.a
.	.	.	2f#	.
.	.	.	.	4b
1e	2r	.	1g	2cc
.	[2g	.	.	2b
=65	=65	=65	=65	=65
1d	2g]	0r	1a	1dd
.	2f	.	.	.
1G	2e	.	1g	2r
.	[2d	.	.	2dd
=66	=66	=66	=66	=66
1F	4d]	0r	1a	1.ff
.	4c	.	.	.
.	1c	.	.	.
1D	.	.	1f	.
.	2B	.	.	4ee
.	.	.	.	4dd
=67	=67	=67	=67	=67
1C	1c	1g	2r	4ee
.	.	.	.	4dd
.	.	.	2e	4cc
.	.	.	.	4b
1F	1r	1f	1c	2a
.	.	.	.	[2cc
=68	=68	=68	=68	=68
0G	1r	1d	2.g	2cc]
.	.	.	.	4b
.	.	.	8f	4a
.	.	.	8e	.
.	1d	2.g	2d	1b
.	.	.	2G	.
.	.	4f	.	.
=69	=69	=69	=69	=69
0r	1c	2e	1g	2cc
.	.	2.c	.	2.ee
.	1A	.	2r	.
.	.	4d	.	4dd
.	.	4e	[2e	[2cc
.	.	4f#	.	.
=70	=70	=70	=70	=70
1r	1G	1g	2e]	2cc]
.	.	.	1d	2b
1A	1c	2r	.	4cc
.	.	.	.	4dd
.	.	[2e	[2c	4ee
.	.	.	.	4ff#
=71	=71	=71	=71	=71
2.G	1d	2e]	2c]	1gg
.	.	1d	2B	.
4F	.	.	.	.
2E	1e	.	2c	1gg
2C	.	[2c	[2g	.
=72	=72	=72	=72	=72
1G	1d	2c]	4g]	1gg
.	.	.	4f	.
.	.	2B	2d	.
1C	1c	2c	2.e	2r
.	.	[2g	.	[2ee
.	.	.	4f#	.
=73	=73	=73	=73	=73
1G	1B	4g]	1g	2ee]
.	.	4f	.	.
.	.	2d	.	1dd
1r	1A	2e	2a	.
.	.	4d	2f#	[2cc
.	.	4c	.	.
=74	=74	=74	=74	=74
2r	1G	1d	1g	2cc]
2G	.	.	.	2b
2F	1c	2f	2r	2a
2C	.	2e	2g	4g
.	.	.	.	4a
=75	=75	=75	=75	=75
2G	1d	2d	2g	4b
.	.	.	.	4cc#
2D	.	2.a	2f#	1dd
1A	1e	.	1a	.
.	.	4g	.	.
.	.	2e	.	2cc#
=76	=76	=76	=76	=76
[0D	[0d	[0f#	[0a	[0dd
=77	=77	=77	=77	=77
0D]	0d]	0f#]	0a]	0dd]
!! Qui tollis
*Ibass	*Itenor	*Itenor	*Icalto	*Icant
!Bassus	!Tenor 2	!Tenor 1	!Altus	!Cantus
*clefF4	*clefGv2	*clefGv2	*clefG2	*clefG2
*k[]	*k[]	*k[]	*k[]	*k[]
*G:mix	*G:mix	*G:mix	*G:mix	*G:mix
*M4/2	*M4/2	*M4/2	*M4/2	*M4/2
=78	=78	=78	=78	=78
0r	0r	0g	0r	0r
=79	=79	=79	=79	=79
1r	0r	1f#	0r	0r
[1c	.	1g	.	.
=80	=80	=80	=80	=80
1c]	1r	1e	0r	0r
1B	[1g	1d	.	.
=81	=81	=81	=81	=81
1c	1g]	1e	0cc	0r
1A	1f#	1c	.	.
=82	=82	=82	=82	=82
1G	1g	1d	1b	0gg
1r	1e	1c	1cc	.
=83	=83	=83	=83	=83
1r	1d	2r	1a	1ff#
.	.	2d	.	.
1c	1r	[1e	1g	1gg
=84	=84	=84	=84	=84
1c	0g	2e]	0r	1ee
.	.	2c	.	.
2.B	.	2.d	.	1dd
4A	.	4c	.	.
=85	=85	=85	=85	=85
2B	1g	2d	2r	0r
2c	.	2e	2cc	.
1A	1f#	1c	1cc	.
=86	=86	=86	=86	=86
1G	2.g	1d	2.b	2r
.	.	.	.	2gg
.	4f	.	4a	.
1r	4e	1r	2b	1gg
.	4d	.	.	.
.	2c	.	2cc	.
=87	=87	=87	=87	=87
0r	2.d	1r	1.a	2.ff#
.	4c#	.	.	4ee
.	2d	2r	.	2ff#
.	2e	2g	2g	2gg
=88	=88	=88	=88	=88
1r	1c	1g	1cc	1ee
2r	[1d	2.f#	[1a	2.dd
2D	.	.	.	.
.	.	4e	.	8cc
.	.	.	.	8b
=89	=89	=89	=89	=89
2d	1d]	2f#	2a]	2a
2G	.	2g	2b-	1dd
1A	2r	1e	2.a	.
.	[2a	.	.	2cc#
.	.	.	4g	.
=90	=90	=90	=90	=90
1D	2a]	1d	2f	0dd
.	1g	.	2b-	.
1d	.	2r	1a	.
.	2f	[2a	.	.
=91	=91	=91	=91	=91
2c	2e	2a]	1r	0r
2B	2d	1g	.	.
2c	2e	.	2r	.
2A	2c	2f#	[2cc	.
=92	=92	=92	=92	=92
1G	1d	2g	2cc]	2r
.	.	2g	2b	1dd
1r	1r	2f	2a	.
.	.	2e	2g	[2cc
=93	=93	=93	=93	=93
2r	1r	2f	2a	2cc]
2G	.	2d	4g	2b
.	.	.	4f	.
1A	2r	4c	1e	2cc
.	.	4d	.	.
.	2c	4e	.	2a
.	.	4f#	.	.
=94	=94	=94	=94	=94
1G	1d	2.g	0r	1b
.	.	4f	.	.
1A	1c	4e	.	1cc
.	.	4d	.	.
.	.	2c	.	.
=95	=95	=95	=95	=95
1B	1d	1G	1r	0r
1c	2.e	1r	1g	.
.	8d	.	.	.
.	8e	.	.	.
=96	=96	=96	=96	=96
2A	2f	0r	1a	1cc
1c	2e	.	.	.
.	2d	.	1g	1dd
2B	[2g	.	.	.
=97	=97	=97	=97	=97
1A	4g]	0r	1a	1cc
.	4f#	.	.	.
.	4f#	.	.	.
.	4e	.	.	.
1G	1g	.	1b	1dd
=98	=98	=98	=98	=98
2.c	1g	1r	1.cc	1ee
4B	.	.	.	.
1A	1r	1c	.	1ff
.	.	.	4b-	.
.	.	.	4a	.
=99	=99	=99	=99	=99
1G	2r	1d	1b-	1gg
.	2G	.	.	.
1r	1A	1c	1a	2ff
.	.	.	.	[2ee
=100	=100	=100	=100	=100
0r	1B-	1d	2f	4ee]
.	.	.	.	4dd
.	.	.	2g	1dd
.	1A	1e	[1a	.
.	.	.	.	2cc#
=101	=101	=101	=101	=101
1D	1d	1f	2a]	2dd
.	.	.	2a	1dd
1G	1d	[1g	1b	.
.	.	.	.	2dd
=102	=102	=102	=102	=102
2E	2r	2g]	2g	2ee
2D	2d	2f	2a	2ff
1C	2e	1e	1cc	2gg
.	2g	.	.	2ee
=103	=103	=103	=103	=103
1D	2f	1d	0a	4ff
.	.	.	.	4dd
.	2d	.	.	2.ff
2.A	1e	1c#	.	.
.	.	.	.	4ee
.	.	.	.	[2ee
4G	.	.	.	.
=104	=104	=104	=104	=104
2F	2.f	1d	0a	4ee]
.	.	.	.	4dd
2D	.	.	.	1dd
.	4g	.	.	.
1A	2a	1e	.	.
.	2e	.	.	2cc#
=105	=105	=105	=105	=105
[0D	[0f#	[0d	[0a	[0dd
=106	=106	=106	=106	=106
0D]	0f#]	0d]	0a]	0dd]
!! Quoniam
*Ibass	*Itenor	*Itenor	*Icalto	*Icant
!Bassus	!Tenor 2	!Tenor 1	!Altus	!Cantus
*clefF4	*clefGv2	*clefGv2	*clefG2	*clefG2
*k[]	*k[]	*k[]	*k[]	*k[]
*G:mix	*G:mix	*G:mix	*G:mix	*G:mix
*M4/2	*M4/2	*M4/2	*M4/2	*M4/2
=107	=107	=107	=107	=107
0r	0r	1r	1g	0r
.	.	1d	1f	.
=108	=108	=108	=108	=108
0r	0r	1c	2e	1r
.	.	.	2c	.
.	.	2B	2.d	1dd
.	.	2G	.	.
.	.	.	4e	.
=109	=109	=109	=109	=109
0r	0r	4A	4f	1cc
.	.	4B	4g	.
.	.	4c	2a	.
.	.	4d	.	.
.	.	4e	2g	1b
.	.	4f	.	.
.	.	2g	4e	.
.	.	.	8f	.
.	.	.	8g	.
=110	=110	=110	=110	=110
0r	0r	2f	2a	1cc
.	.	2c	1g	.
.	.	2.d	.	1a
.	.	.	2f#	.
.	.	4c	.	.
=111	=111	=111	=111	=111
1G	0r	4B	2g	1g
.	.	4A	.	.
.	.	2B	4d	.
.	.	.	4e	.
1F	.	1A	4f	2cc
.	.	.	4g	.
.	.	.	[2a	2dd
=112	=112	=112	=112	=112
1E	0r	2c	2a]	1ee
.	.	2B	2g#	.
1F	.	2A	1a	2.cc
.	.	[2c	.	.
.	.	.	.	8dd
.	.	.	.	8ee
=113	=113	=113	=113	=113
1D	0r	2c]	2.f	1.ff
.	.	2B	.	.
.	.	.	4g	.
1C	.	2.c	2a	.
.	.	.	2g	2ee
.	.	4B	.	.
=114	=114	=114	=114	=114
1F	1r	2A	2.f	2dd
.	.	2a	.	1cc
.	.	.	4e	.
1G	1d	2.g	2d	.
.	.	.	[2g	2b
.	.	4f	.	.
=115	=115	=115	=115	=115
1A	1c	2e	2g]	1cc
.	.	4d	2f#	.
.	.	4c	.	.
1G	1B	1d	2g	1r
.	.	.	[2g	.
=116	=116	=116	=116	=116
1C	1c	1e	2g]	2r
.	.	.	2c	1gg
2r	1A	1c	2e	.
[2c	.	.	2f	2ff
=117	=117	=117	=117	=117
2c]	1G	2r	2.g	2ee
2B	.	2d	.	2dd
.	.	.	8f#	.
.	.	.	8g	.
2A	1c	1e	2a	2cc
2c	.	.	2g	[2ee
=118	=118	=118	=118	=118
2G	1d	2g	4b	4ee]
.	.	.	4a	4dd
2D	.	2.a	4f#	1dd
.	.	.	4g	.
1A	1e	.	1a	.
.	.	4g	.	.
.	.	2e	.	2cc#
=119	=119	=119	=119	=119
[0D	[0d	[0f#	[0a	[0dd
=120	=120	=120	=120	=120
0D]	0d]	0f#]	0a]	0dd]
!! Tu solus Altissimus
*Ibass	*Itenor	*Itenor	*Icalto	*Icant
!Bassus	!Tenor 2	!Tenor 1	!Altus	!Cantus
*clefF4	*clefGv2	*clefGv2	*clefG2	*clefG2
*k[]	*k[]	*k[]	*k[]	*k[]
*G:mix	*G:mix	*G:mix	*G:mix	*G:mix
*M4/2	*M4/2	*M4/2	*M4/2	*M4/2
=121	=121	=121	=121	=121
0r	0r	0r	0r	1dd
.	.	.	.	1cc
=122	=122	=122	=122	=122
0r	0r	0r	1g	1dd
.	.	.	1f#	1a
=123	=123	=123	=123	=123
0r	0r	2r	1g	2.b
.	.	2g	.	.
.	.	.	.	4cc
.	.	1f#	1d	2dd
.	.	.	.	2a
=124	=124	=124	=124	=124
0r	0r	1g	1e	4cc
.	.	.	.	4b
.	.	.	.	4b
.	.	.	.	8a
.	.	.	.	8g
.	.	1d	1f	2a
.	.	.	.	2dd
=125	=125	=125	=125	=125
1r	0r	1e	2.g	2b
.	.	.	.	2cc
.	.	.	4g	.
1d	.	1f	2a	2dd
.	.	.	2b	[2ff
=126	=126	=126	=126	=126
1c	0r	1.g	1cc	4ff]
.	.	.	.	4ee
.	.	.	.	2.ee
1d	.	.	[1a	.
.	.	.	.	4dd
.	.	2f	.	2dd
=127	=127	=127	=127	=127
1A	0r	1e	2a]	2dd
.	.	.	2a	2cc#
1B	.	1d	2g	1dd
.	.	.	2f	.
=128	=128	=128	=128	=128
1c	1g	0r	1e	2cc
.	.	.	.	2b
2.d	1f#	.	2r	1a
.	.	.	2a	.
4d	.	.	.	.
=129	=129	=129	=129	=129
1G	1g	2r	1b	2g
.	.	2g	.	2.gg
2r	1d	2a	1a	.
.	.	.	.	4ff
2d	.	2f	.	2ff
=130	=130	=130	=130	=130
1c	1e	1g	2.cc	1ee
.	.	.	4b	.
2d	1f	4f	4a	2dd
.	.	4e	4g	.
2D	.	4d	2a	[2ff
.	.	4c	.	.
=131	=131	=131	=131	=131
1E	1g	2B	2g	4ff]
.	.	.	.	4ee
.	.	2B	2e	1ee
2.F	1f	2A	[1a	.
.	.	[2A	.	[2dd
4G	.	.	.	.
=132	=132	=132	=132	=132
1.A	0e	2A]	2a]	2dd]
.	.	1a	2e	4cc#
.	.	.	.	4b
.	.	.	2.a	2cc#
2A	.	2e	.	2cc#
.	.	.	4a	.
=133	=133	=133	=133	=133
0D	0d	1f#	1a	0dd
.	.	[1a	[1f	.
=134	=134	=134	=134	=134
0F	[0c	2a]	2f]	1cc
.	.	2g	2g	.
.	.	1f	2a	1ff
.	.	.	2b	.
=135	=135	=135	=135	=135
1C	1c]	2g	2.cc	1ee
.	.	1a	.	.
.	.	.	4b	.
1D	1f	.	2a	1dd
.	.	2a	2d	.
=136	=136	=136	=136	=136
1A	1e	2.a	2e	1cc#
.	.	.	1a	.
.	.	4g	.	.
1B-	1d	2f	.	1dd
.	.	4e	2g	.
.	.	4d	.	.
=137	=137	=137	=137	=137
0A	2c#	2e	0a	1r
.	1d	2f	.	.
.	.	1e	.	1ee
.	2c#	.	.	.
=138	=138	=138	=138	=138
2D	[0d	2d	1a	0ff#
1D	.	1A	.	.
.	.	.	1a	.
2D	.	2A	.	.
=139	=139	=139	=139	=139
0G	0d]	1B-	1g	0gg
.	.	1G	1b-	.
=140	=140	=140	=140	=140
[0D	[0d	[0A	[0a	[0ff#
=141	=141	=141	=141	=141
0D]	0d]	0A]	0a]	0ff#]
!! Amen
*Ibass	*Itenor	*Itenor	*Icalto	*Icant
!Bassus	!Tenor 2	!Tenor 1	!Altus	!Cantus
*clefF4	*clefGv2	*clefGv2	*clefG2	*clefG2
*k[]	*k[]	*k[]	*k[]	*k[]
*G:mix	*G:mix	*G:mix	*G:mix	*G:mix
*M4/2	*M4/2	*M4/2	*M4/2	*M4/2
=142	=142	=142	=142	=142
0r	0r	0r	1r	1dd
.	.	.	1g	1b
=143	=143	=143	=143	=143
0r	0r	0r	1e	1.cc
.	.	.	[1f	.
.	.	.	.	2b
=144	=144	=144	=144	=144
0r	0r	0r	2f]	2a
.	.	.	2e	2g
.	.	.	2d	2a
.	.	.	4c	[2cc
.	.	.	4d	.
=145	=145	=145	=145	=145
0r	0r	1r	4e	2cc]
.	.	.	4f#	.
.	.	.	1g	2b
.	.	1d	.	1a
.	.	.	2f#	.
=146	=146	=146	=146	=146
1G	0r	1B	2g	1g
.	.	.	2d	.
1E	.	[1c	4e	2r
.	.	.	4d	.
.	.	.	4c	2g
.	.	.	4B	.
=147	=147	=147	=147	=147
1.F	0r	2c]	2A	2a
.	.	2B	2d	2b
.	.	2A	4c	1cc
.	.	.	4d	.
2E	.	2G	4e	.
.	.	.	4c	.
=148	=148	=148	=148	=148
2D	0r	2A	2f	2dd
2C	.	1c	2e	2ee
[1D	.	.	1d	2ff#
.	.	2B	.	[2gg
=149	=149	=149	=149	=149
1D]	1d	1A	1r	2gg]
.	.	.	.	2ff#
1E	1B	[1G	2r	2gg
.	.	.	2g	[2gg
=150	=150	=150	=150	=150
1C	1.c	2G]	2e	2gg]
.	.	2c	2g	2ee
1D	.	2A	2.f	[1ff
.	2B	2B	.	.
.	.	.	4g	.
=151	=151	=151	=151	=151
1C	2A	1.c	4a	2ff]
.	.	.	4b	.
.	2G	.	2.cc	2ee
[1F	2A	.	.	1cc
.	.	.	4b	.
.	[2c	[2f	[2a	.
=152	=152	=152	=152	=152
2F]	2c]	4f]	2a]	1.dd
.	.	4e	.	.
2G	2B	4d	1g	.
.	.	4c	.	.
1D	1A	1d	.	.
.	.	.	2f#	2a
=153	=153	=153	=153	=153
[0G	[0G	[0d	[0g	[0b
=154	=154	=154	=154	=154
0G]	0G]	0d]	0g]	0b]
==	==	==	==	==
*-	*-	*-	*-	*-
!!!CDT: 1525/^1526/-1594/2/2
!!!OCY: Italia
!!!AGN: Mass (Paraphrase)
!!!AST: renaissance, vocal
!!!ASW: Gregorian Mass
!!!PWK: Masses, Book Mantuan I
!!!RNB: Cadence finals: D
!!!YOR: Le Opere Complete, v. 18, p. 83
!!!YOO: Rome, Italy: Fratelli Scalera
!!!END: 1992//
!!!EED: John Miller
!!!YEC: Copyright 2000, John Miller
!!!YEN: United States of America
!!!YEM: Rights to all derivative electronic formats reserved.
!!!YEM: Refer to licensing agreement for further details.
!!!YEM: This file must be accompanied by the licensing agreement.
!!!YEM: A copy of the licensing agreement may be found at http://www.music-cog.ohio-state.edu/HumdrumDatabases/Palestrina/license.txt
!!!EMD: converted to Humdrum by Bret Aarden
